!!!COM: John Williams
!!!OTL: Pastoral Courtship
!!!GAW: Star Wars: Episode II
!!!ODT: 2002
!!!OCL: Frank Lehman
!!!ENC: Claire Arthur
!!!ENC2: John McNamara
**kern	**harte	**harm	**cadence	**text
*clefG2	*	*	*	*
*k[f#]	*k[f#]	*k[f#]	*	*
*d:	*d:	*d:	*	*
*M6/8	*M6/8	*M6/8	*	*
*MM80	*MM80	*MM80	*	*
4.aa	.	i	.	.
=1	=1	=1	=1	=1
24ggLL	D:7(*3,4)	.	.	.
24ff#	.	.	.	.
24eeJJ	.	.	.	.
4dd	.	.	.	.
4ccT	.	.	.	.
8b	.	.	.	.
=2	=2	=2	=2	=2
4a	.	.	.	.
8g	.	.	.	.
4a	.	.	.	.
8dd	.	.	.	Theme has a densely contrapuntal accompaniment in D aeolian/dorian, does not map well onto chord symbols or RNs
=3	=3	=3	=3	=3
24ggLL	.	.	.	.
24ffn	.	.	.	.
24eeJJ	.	.	.	.
4dd	.	.	.	.
4g	.	.	.	.
16ccLL	.	.	.	.
32ddL	.	.	.	.
32ccJJJ	.	.	.	.
=4	=4	=4	=4	=4
8.b-L	.	.	.	.
16cck	.	.	.	.
8aJ	.	.	.	.
16fnLL	.	.	.	.
[16gJJ	.	.	.	.
4g]	.	.	//	.
=5	=5	=5	=5	=5
4dd	.	.	.	.
8a	.	.	.	.
4aa	.	.	.	.
8dd	.	.	.	.
=6	=6	=6	=6	=6
[4ccc	.	.	.	.
24cccLL]	.	.	.	.
24bb-	.	.	.	.
24aaJJ	.	.	.	.
4gg	.	.	.	.
8a	.	.	.	.
=7	=7	=7	=7	=7
4ffnT	.	.	.	.
8gg	.	.	.	.
4ffT	.	.	.	.
8ee	.	.	.	.
=8	=8	=8	=8	=8
[4g	.	.	.	.
40gLLL]	.	.	.	.
40a	.	.	.	.
40b-	.	.	.	.
40cc	.	.	.	.
40ddJJJ	.	.	.	.
[4ee	.	.	.	.
16eeLL]	.	.	.	.
32ffnL	.	.	.	.
32eeJJJ	.	.	//	.
=9	=9	=9	=9	=9
4dd	.	.	.	.
8aa	.	.	.	.
24ggLL	.	.	.	.
24ffn	.	.	.	.
24eeJJ	.	.	.	.
4dd	.	.	.	.
=10	=10	=10	=10	=10
8.ccL	.	.	.	.
16ddk	.	.	.	.
8aJ	.	.	.	.
8fnL	.	.	.	.
32aLL	.	.	.	.
[32gJJ	.	.	.	.
8.gJ]	.	.	.	.
=11	=11	=11	=11	=11
8cc	.	.	.	.
4g	.	.	.	.
4.a	.	.	]]	.
=	=	=	=	=
*-	*-	*-	*-	*-
